static/app-icons/dark-theme/MaximoAugmentedCollaboration.svg

<svg xmlns="http://www.w3.org/2000/svg" xmlns:xlink="http://www.w3.org/1999/xlink" viewBox="0 0 32 32"><defs><linearGradient id="linear-gradient" x1="356" y1="3037" x2="365" y2="3037" gradientTransform="translate(-351.999 -3026)" gradientUnits="userSpaceOnUse"><stop offset=".2"/><stop offset="1" stop-opacity="0"/></linearGradient><linearGradient id="linear-gradient-2" x1="-17" y1="3037" x2="-9" y2="3037" gradientTransform="matrix(1 0 0 -1 36 3048)" xlink:href="#linear-gradient"/><linearGradient id="linear-gradient-3" x1="-1329.5" y1="1691.999" x2="-1322.5" y2="1691.999" gradientTransform="translate(1336.501 -1668.499)" gradientUnits="userSpaceOnUse"><stop offset=".1"/><stop offset="1" stop-opacity="0"/></linearGradient><linearGradient id="linear-gradient-4" x1="-1329.5" y1="1680.999" x2="-1322.5" y2="1680.999" gradientTransform="translate(1347.501 -1657.499)" xlink:href="#linear-gradient-3"/><linearGradient id="linear-gradient-5" x1="-648" y1="32" x2="-680" gradientTransform="matrix(1 0 0 -1 680 32)" gradientUnits="userSpaceOnUse"><stop offset=".1" stop-color="#be95ff"/><stop offset=".9" stop-color="#4589ff"/></linearGradient><style>.cls-1{fill:#fff}.cls-8{fill:#f4f4f4}</style><mask id="mask" x="0" y="0" width="32" height="32" maskUnits="userSpaceOnUse"><path class="cls-1" d="M8 9a4 4 0 114-4 4 4 0 01-4 4zm0-6a2 2 0 102 2 2 2 0 00-2-2zM24 9a4 4 0 114-4 4 4 0 01-4 4zm0-6a2 2 0 102 2 2 2 0 00-2-2zM10 28H6v-9H4v-6a1 1 0 011-1h7v-2H5a3 3 0 00-3 3v6a2 2 0 002 2v7a2 2 0 002 2h4a2 2 0 002-2v-7h-2zM27 10h-7v2h7a1 1 0 011 1v6h-2v9h-4v-7h-2v7a2 2 0 002 2h4a2 2 0 002-2v-7a2 2 0 002-2v-6a3 3 0 00-3-3z"/><path transform="rotate(180 8.5 11)" fill="url(#linear-gradient)" d="M4 9h9v4H4z"/><path fill="url(#linear-gradient-2)" d="M19 9h8v4h-8z"/><path transform="rotate(90 10.5 23.5)" fill="url(#linear-gradient-3)" d="M7 21h7v5H7z"/><path transform="rotate(90 21.5 23.5)" fill="url(#linear-gradient-4)" d="M18 21h7v5h-7z"/></mask></defs><g id="Layer_2" data-name="Layer 2"><g id="Dark_theme_icons" data-name="Dark theme icons"><g mask="url(#mask)"><path id="Color" transform="rotate(180 16 16)" fill="url(#linear-gradient-5)" d="M0 0h32v32H0z"/></g><circle class="cls-8" cx="16" cy="15" r="2"/><path class="cls-8" d="M23.234 14.564a8 8 0 00-14.468 0L8.559 15l.207.436a8 8 0 0014.468 0l.207-.436zM16 19a4 4 0 114-4 4 4 0 01-4 4z"/></g></g></svg>

<svg xmlns="http://www.w3.org/2000/svg" xmlns:xlink="http://www.w3.org/1999/xlink" viewBox="0 0 32 32"><defs><style>.cls-1{fill:#fff;}.cls-2{fill:url(#linear-gradient);}.cls-3{fill:url(#linear-gradient-2);}.cls-4{fill:url(#linear-gradient-3);}.cls-5{fill:url(#linear-gradient-4);}.cls-6{mask:url(#mask);}.cls-7{fill:url(#linear-gradient-5);}.cls-8{fill:#f4f4f4;}</style><linearGradient id="linear-gradient" x1="356" y1="3037" x2="365" y2="3037" gradientTransform="translate(-351.999 -3026)" gradientUnits="userSpaceOnUse"><stop offset="0.2"/><stop offset="1" stop-opacity="0"/></linearGradient><linearGradient id="linear-gradient-2" x1="-17" y1="3037" x2="-9" y2="3037" gradientTransform="matrix(1, 0, 0, -1, 36, 3048)" xlink:href="#linear-gradient"/><linearGradient id="linear-gradient-3" x1="-1329.5" y1="1691.999" x2="-1322.5" y2="1691.999" gradientTransform="translate(1336.501 -1668.499)" gradientUnits="userSpaceOnUse"><stop offset="0.1"/><stop offset="1" stop-opacity="0"/></linearGradient><linearGradient id="linear-gradient-4" x1="-1329.5" y1="1680.999" x2="-1322.5" y2="1680.999" gradientTransform="translate(1347.501 -1657.499)" xlink:href="#linear-gradient-3"/><mask id="mask" x="0" y="0" width="32" height="32" maskUnits="userSpaceOnUse"><path class="cls-1" d="M8,9a4,4,0,1,1,4-4A4,4,0,0,1,8,9ZM8,3a2,2,0,1,0,2,2A2,2,0,0,0,8,3Z"/><path class="cls-1" d="M24,9a4,4,0,1,1,4-4A4,4,0,0,1,24,9Zm0-6a2,2,0,1,0,2,2A2,2,0,0,0,24,3Z"/><path class="cls-1" d="M10,28H6V19H4V13a1,1,0,0,1,1-1h7V10H5a3,3,0,0,0-3,3v6a2,2,0,0,0,2,2v7a2,2,0,0,0,2,2h4a2,2,0,0,0,2-2V21H10Z"/><path class="cls-1" d="M27,10H20v2h7a1,1,0,0,1,1,1v6H26v9H22V21H20v7a2,2,0,0,0,2,2h4a2,2,0,0,0,2-2V21a2,2,0,0,0,2-2V13A3,3,0,0,0,27,10Z"/><rect class="cls-2" x="4" y="9" width="9" height="4" transform="matrix(-1, 0, 0, -1, 17, 22)"/><rect class="cls-3" x="19" y="9" width="8" height="4"/><rect class="cls-4" x="7" y="21" width="7" height="5" transform="translate(34 13) rotate(90)"/><rect class="cls-5" x="18" y="21" width="7" height="5" transform="translate(45 2) rotate(90)"/></mask><linearGradient id="linear-gradient-5" x1="-648" y1="32" x2="-680" gradientTransform="matrix(1, 0, 0, -1, 680, 32)" gradientUnits="userSpaceOnUse"><stop offset="0.1" stop-color="#be95ff"/><stop offset="0.9" stop-color="#4589ff"/></linearGradient></defs><g id="Layer_2" data-name="Layer 2"><g id="Dark_theme_icons" data-name="Dark theme icons"><g class="cls-6"><rect id="Color" class="cls-7" width="32" height="32" transform="translate(32 32) rotate(180)"/></g><circle class="cls-8" cx="16" cy="15" r="2"/><path class="cls-8" d="M23.234,14.564a8,8,0,0,0-14.468,0L8.559,15l.207.436a8,8,0,0,0,14.468,0L23.441,15ZM16,19a4,4,0,1,1,4-4A4,4,0,0,1,16,19Z"/></g></g></svg>
